icons/zip.svg

<svg xmlns="http://www.w3.org/2000/svg" data-name="Calque 1" viewBox="0 0 16 16"><path d="M5 10.1V8.7h2v1.4H5v1.4H3v-1.4h2m0-2.8V5.9h2v1.4H5v1.4H3V7.3h2M3 4.5h2v1.4H3V4.5M6.85 3H2.54a1 1 0 0 0-1 1v8a1 1 0 0 0 1 1.05h11a1 1 0 0 0 1-1.05V6.05a1 1 0 0 0-1-1H9.15a1 1 0 0 1-.94-.58l-.42-.84A1 1 0 0 0 6.85 3" style="fill:#78bc37"/></svg>

<svg id="Calque_1" data-name="Calque 1" xmlns="http://www.w3.org/2000/svg" viewBox="0 0 16 16"><defs><style>.cls-1{fill:#78bc37;}</style></defs><path class="cls-1" d="M5,10.1V8.7H7v1.4H5v1.4H3V10.1H5M5,7.3V5.9H7V7.3H5V8.7H3V7.3H5M3,4.5H5V5.9H3V4.5M6.85,3H2.54a1,1,0,0,0-1,1V12a1,1,0,0,0,1,1.05h11a1,1,0,0,0,1-1.05V6.05a1,1,0,0,0-1-1H9.15a1,1,0,0,1-.94-.58l-.42-.84A1,1,0,0,0,6.85,3"/></svg>
